src/img/confirmación naranja.svg

<svg width="36" height="36" viewBox="0 0 36 36" fill="none" xmlns="http://www.w3.org/2000/svg">
<path d="M18 0.486328C15.5938 0.486328 13.3242 0.951172 11.1914 1.88086C9.05859 2.7832 7.19922 4.02734 5.61328 5.61328C4.02734 7.19922 2.7832 9.05859 1.88086 11.1914C0.951172 13.3242 0.486328 15.5938 0.486328 18C0.486328 20.4062 0.951172 22.6758 1.88086 24.8086C2.7832 26.9414 4.02734 28.8008 5.61328 30.3867C7.19922 31.9727 9.05859 33.2168 11.1914 34.1191C13.3242 35.0488 15.5938 35.5137 18 35.5137C20.4062 35.5137 22.6758 35.0488 24.8086 34.1191C26.9414 33.2168 28.8008 31.9727 30.3867 30.3867C31.9727 28.8008 33.2168 26.9414 34.1191 24.8086C35.0488 22.6758 35.5137 20.4062 35.5137 18C35.5137 15.5938 35.0488 13.3242 34.1191 11.1914C33.2168 9.05859 31.9727 7.19922 30.3867 5.61328C28.8008 4.02734 26.9414 2.7832 24.8086 1.88086C22.6758 0.951172 20.4062 0.486328 18 0.486328ZM15.416 24.9727C15.3066 24.9727 15.1973 24.959 15.0879 24.9316C14.9785 24.877 14.8828 24.8086 14.8008 24.7266L9.55078 19.4766C9.35938 19.3125 9.25 19.1211 9.22266 18.9023C9.22266 18.6562 9.30469 18.4375 9.46875 18.2461C9.63281 18.082 9.83789 18 10.084 18C10.3301 17.9727 10.5352 18.041 10.6992 18.2051C10.7266 18.2051 10.7402 18.2188 10.7402 18.2461C10.7402 18.2461 10.7539 18.2461 10.7812 18.2461L15.416 22.8809L25.4238 12.9961C25.6152 12.832 25.8203 12.75 26.0391 12.75C26.2852 12.75 26.4902 12.8457 26.6543 13.0371C26.8184 13.2012 26.9004 13.4062 26.9004 13.6523C26.9004 13.8711 26.8184 14.0625 26.6543 14.2266L16.0312 24.7266C15.9492 24.8086 15.8535 24.877 15.7441 24.9316C15.6348 24.959 15.5254 24.9727 15.416 24.9727Z" fill="#EC7000"/>
</svg>

<svg width="36" height="36" fill="none" xmlns="http://www.w3.org/2000/svg"><path d="M18 .486c-2.406 0-4.676.465-6.809 1.395C9.06 2.783 7.2 4.027 5.613 5.613 4.027 7.2 2.783 9.06 1.881 11.191.95 13.324.486 15.594.486 18c0 2.406.465 4.676 1.395 6.809.902 2.132 2.146 3.992 3.732 5.578 1.586 1.586 3.446 2.83 5.578 3.732 2.133.93 4.403 1.395 6.809 1.395 2.406 0 4.676-.465 6.809-1.395 2.132-.902 3.992-2.146 5.578-3.732 1.586-1.586 2.83-3.446 3.732-5.578.93-2.133 1.395-4.403 1.395-6.809 0-2.406-.465-4.676-1.395-6.809-.902-2.132-2.146-3.992-3.732-5.578-1.586-1.586-3.446-2.83-5.578-3.732C22.676.95 20.406.486 18 .486zm-2.584 24.487c-.11 0-.219-.014-.328-.041a1.092 1.092 0 01-.287-.205l-5.25-5.25a.89.89 0 01-.328-.575.98.98 0 01.246-.656.835.835 0 01.615-.246.714.714 0 01.615.205c.028 0 .041.014.041.041h.041l4.635 4.635 10.008-9.885a.93.93 0 01.615-.246c.246 0 .451.096.615.287.164.164.246.37.246.615 0 .22-.082.41-.246.575l-10.623 10.5c-.082.082-.177.15-.287.205-.11.027-.219.04-.328.04z" fill="#EC7000"/></svg>
